icons/modern/sign-of-the-horns.svg

<svg width="32" height="32" viewBox="0 0 32 32" fill="none" xmlns="http://www.w3.org/2000/svg">
<g filter="url(#filter0_i_20020_2478)">
<path d="M22.7603 2.02344C21.2879 2.02344 20.0943 3.21706 20.0943 4.68945V12.9062H11.5005V8.33008C11.5005 6.85768 10.3069 5.66406 8.83453 5.66406C7.36214 5.66406 6.16852 6.85768 6.16852 8.33008V19.1328C6.16852 25.7891 9.62164 29.5391 14.9029 29.9766H16.0904C19.0006 29.6855 21.9966 28.6484 24.2466 25.4297C26.1373 22.3828 25.8948 19.3394 25.704 17.5543L25.6841 17.3672C25.5466 16.0607 25.4599 15.0047 25.4263 14.541V4.68945C25.4263 3.21706 24.2327 2.02344 22.7603 2.02344Z" fill="#FFAF42"/>
</g>
<g filter="url(#filter1_f_20020_2478)">
<path d="M16.3715 15.2517C14.7966 15.2517 13.52 16.5284 13.52 18.1033C13.52 19.6781 14.7966 20.9548 16.3715 20.9548H17.9955C21.0296 20.9548 22.1233 20.9548 24.395 20.6994C24.395 17.1985 21.559 15.2559 18.059 15.2517" fill="#D37223"/>
<path d="M16.3715 15.2517H18.0512Z" fill="#D37223"/>
</g>
<g filter="url(#filter2_f_20020_2478)">
<rect x="9.83521" y="10.9586" width="6.09893" height="6.99453" fill="url(#paint0_linear_20020_2478)"/>
</g>
<rect x="6.16852" y="5.66406" width="5.33203" height="11.8125" rx="2.66602" fill="url(#paint1_radial_20020_2478)"/>
<rect x="6.16852" y="5.66406" width="5.33203" height="11.8125" rx="2.66602" fill="url(#paint2_radial_20020_2478)"/>
<rect x="20.0943" y="2.02344" width="5.33203" height="15.4531" rx="2.66602" fill="url(#paint3_radial_20020_2478)"/>
<g filter="url(#filter3_i_20020_2478)">
<rect x="10.5396" y="8.80469" width="5.39453" height="8.20312" rx="2.69727" fill="url(#paint4_linear_20020_2478)"/>
<rect x="10.5396" y="8.80469" width="5.39453" height="8.20312" rx="2.69727" fill="url(#paint5_radial_20020_2478)"/>
</g>
<rect x="10.5396" y="8.80469" width="5.39453" height="8.20312" rx="2.69727" fill="url(#paint6_radial_20020_2478)"/>
<rect x="10.5396" y="8.80469" width="5.39453" height="8.20312" rx="2.69727" fill="url(#paint7_linear_20020_2478)"/>
<g filter="url(#filter4_i_20020_2478)">
<rect x="15.4068" y="7.19531" width="5.33203" height="10.2812" rx="2.66602" fill="url(#paint8_linear_20020_2478)"/>
</g>
<rect x="15.4068" y="7.19531" width="5.33203" height="10.2812" rx="2.66602" fill="url(#paint9_linear_20020_2478)"/>
<g filter="url(#filter5_f_20020_2478)">
<path d="M23.5267 4.60156V18.1641" stroke="#FFE446" stroke-width="1.5" stroke-linecap="round"/>
</g>
<path d="M17.7388 14.1172C16.164 14.1172 14.8873 15.3939 14.8873 16.9688C14.8873 18.5436 16.164 19.8203 17.7388 19.8203H19.3629C19.6629 19.8469 19.937 20.0079 20.1061 20.261L22.5773 23.9126C23.0187 24.5649 24.0058 24.4746 24.3216 23.7531L25.259 21.611C25.5909 20.8525 25.8016 20.0253 25.6396 19.2134C25.0606 16.3097 22.4994 14.1209 19.4263 14.1172" fill="url(#paint10_radial_20020_2478)"/>
<path d="M17.7388 14.1172C16.164 14.1172 14.8873 15.3939 14.8873 16.9688C14.8873 18.5436 16.164 19.8203 17.7388 19.8203H19.3629C19.6629 19.8469 19.937 20.0079 20.1061 20.261L22.5773 23.9126C23.0187 24.5649 24.0058 24.4746 24.3216 23.7531L25.259 21.611C25.5909 20.8525 25.8016 20.0253 25.6396 19.2134C25.0606 16.3097 22.4994 14.1209 19.4263 14.1172" fill="url(#paint11_linear_20020_2478)"/>
<path d="M17.7388 14.1172H19.4185Z" fill="url(#paint12_radial_20020_2478)"/>
<path d="M17.7388 14.1172H19.4185Z" fill="url(#paint13_linear_20020_2478)"/>
<g filter="url(#filter6_f_20020_2478)">
<path d="M17.6408 16.1805L19.9253 16.1805C20.8483 16.1805 21.7199 16.6054 22.2885 17.3324L24.395 20.026" stroke="url(#paint14_linear_20020_2478)" stroke-width="2" stroke-linecap="round"/>
</g>
<path d="M22.7603 2.02344C21.2879 2.02344 20.0943 3.21706 20.0943 4.68945V8.12309C20.496 8.58983 20.7388 9.19722 20.7388 9.86133V14.8105C20.7388 16.2829 19.5452 17.4766 18.0728 17.4766C16.9086 17.4766 15.9186 16.7303 15.5552 15.6899C15.0847 16.4792 14.2225 17.0078 13.2369 17.0078C11.7472 17.0078 10.5396 15.8002 10.5396 14.3105V11.502C10.5396 10.6737 10.913 9.93259 11.5005 9.43781V8.33008C11.5005 6.85768 10.3069 5.66406 8.83453 5.66406C7.36214 5.66406 6.16852 6.85768 6.16852 8.33008V19.1328C6.16852 25.7891 9.62164 29.5391 14.9029 29.9766H16.0904C19.0006 29.6855 21.9966 28.6484 24.2466 25.4297C26.1373 22.3828 25.8948 19.3394 25.704 17.5543L25.6841 17.3672C25.5466 16.0607 25.4599 15.0047 25.4263 14.541V4.68945C25.4263 3.21706 24.2327 2.02344 22.7603 2.02344Z" fill="url(#paint15_linear_20020_2478)"/>
<path d="M22.7603 2.02344C21.2879 2.02344 20.0943 3.21706 20.0943 4.68945V8.12309C20.496 8.58983 20.7388 9.19722 20.7388 9.86133V14.8105C20.7388 16.2829 19.5452 17.4766 18.0728 17.4766C16.9086 17.4766 15.9186 16.7303 15.5552 15.6899C15.0847 16.4792 14.2225 17.0078 13.2369 17.0078C11.7472 17.0078 10.5396 15.8002 10.5396 14.3105V11.502C10.5396 10.6737 10.913 9.93259 11.5005 9.43781V8.33008C11.5005 6.85768 10.3069 5.66406 8.83453 5.66406C7.36214 5.66406 6.16852 6.85768 6.16852 8.33008V19.1328C6.16852 25.7891 9.62164 29.5391 14.9029 29.9766H16.0904C19.0006 29.6855 21.9966 28.6484 24.2466 25.4297C26.1373 22.3828 25.8948 19.3394 25.704 17.5543L25.6841 17.3672C25.5466 16.0607 25.4599 15.0047 25.4263 14.541V4.68945C25.4263 3.21706 24.2327 2.02344 22.7603 2.02344Z" fill="url(#paint16_radial_20020_2478)"/>
<defs>
<filter id="filter0_i_20020_2478" x="6.16852" y="1.27344" width="20.4129" height="28.7031" filterUnits="userSpaceOnUse" color-interpolation-filters="sRGB">
<feFlood flood-opacity="0" result="BackgroundImageFix"/>
<feBlend mode="normal" in="SourceGraphic" in2="BackgroundImageFix" result="shape"/>
<feColorMatrix in="SourceAlpha" type="matrix" values="0 0 0 0 0 0 0 0 0 0 0 0 0 0 0 0 0 0 127 0" result="hardAlpha"/>
<feOffset dx="0.75" dy="-0.75"/>
<feGaussianBlur stdDeviation="1"/>
<feComposite in2="hardAlpha" operator="arithmetic" k2="-1" k3="1"/>
<feColorMatrix type="matrix" values="0 0 0 0 0.894118 0 0 0 0 0.490196 0 0 0 0 0.313726 0 0 0 1 0"/>
<feBlend mode="normal" in2="shape" result="effect1_innerShadow_20020_2478"/>
</filter>
<filter id="filter1_f_20020_2478" x="11.52" y="13.2517" width="14.875" height="9.70312" filterUnits="userSpaceOnUse" color-interpolation-filters="sRGB">
<feFlood flood-opacity="0" result="BackgroundImageFix"/>
<feBlend mode="normal" in="SourceGraphic" in2="BackgroundImageFix" result="shape"/>
<feGaussianBlur stdDeviation="1" result="effect1_foregroundBlur_20020_2478"/>
</filter>
<filter id="filter2_f_20020_2478" x="7.83521" y="8.95862" width="10.0989" height="10.9945" filterUnits="userSpaceOnUse" color-interpolation-filters="sRGB">
<feFlood flood-opacity="0" result="BackgroundImageFix"/>
<feBlend mode="normal" in="SourceGraphic" in2="BackgroundImageFix" result="shape"/>
<feGaussianBlur stdDeviation="1" result="effect1_foregroundBlur_20020_2478"/>
</filter>
<filter id="filter3_i_20020_2478" x="10.5396" y="8.05469" width="6.14453" height="8.95312" filterUnits="userSpaceOnUse" color-interpolation-filters="sRGB">
<feFlood flood-opacity="0" result="BackgroundImageFix"/>
<feBlend mode="normal" in="SourceGraphic" in2="BackgroundImageFix" result="shape"/>
<feColorMatrix in="SourceAlpha" type="matrix" values="0 0 0 0 0 0 0 0 0 0 0 0 0 0 0 0 0 0 127 0" result="hardAlpha"/>
<feOffset dx="0.75" dy="-0.75"/>
<feGaussianBlur stdDeviation="1"/>
<feComposite in2="hardAlpha" operator="arithmetic" k2="-1" k3="1"/>
<feColorMatrix type="matrix" values="0 0 0 0 0.921569 0 0 0 0 0.533333 0 0 0 0 0.223529 0 0 0 1 0"/>
<feBlend mode="normal" in2="shape" result="effect1_innerShadow_20020_2478"/>
</filter>
<filter id="filter4_i_20020_2478" x="15.4068" y="6.44531" width="6.08203" height="11.0312" filterUnits="userSpaceOnUse" color-interpolation-filters="sRGB">
<feFlood flood-opacity="0" result="BackgroundImageFix"/>
<feBlend mode="normal" in="SourceGraphic" in2="BackgroundImageFix" result="shape"/>
<feColorMatrix in="SourceAlpha" type="matrix" values="0 0 0 0 0 0 0 0 0 0 0 0 0 0 0 0 0 0 127 0" result="hardAlpha"/>
<feOffset dx="0.75" dy="-0.75"/>
<feGaussianBlur stdDeviation="1"/>
<feComposite in2="hardAlpha" operator="arithmetic" k2="-1" k3="1"/>
<feColorMatrix type="matrix" values="0 0 0 0 0.921569 0 0 0 0 0.533333 0 0 0 0 0.223529 0 0 0 1 0"/>
<feBlend mode="normal" in2="shape" result="effect1_innerShadow_20020_2478"/>
</filter>
<filter id="filter5_f_20020_2478" x="20.7767" y="1.85156" width="5.5" height="19.0625" filterUnits="userSpaceOnUse" color-interpolation-filters="sRGB">
<feFlood flood-opacity="0" result="BackgroundImageFix"/>
<feBlend mode="normal" in="SourceGraphic" in2="BackgroundImageFix" result="shape"/>
<feGaussianBlur stdDeviation="1" result="effect1_foregroundBlur_20020_2478"/>
</filter>
<filter id="filter6_f_20020_2478" x="14.6408" y="13.1805" width="12.7542" height="9.84552" filterUnits="userSpaceOnUse" color-interpolation-filters="sRGB">
<feFlood flood-opacity="0" result="BackgroundImageFix"/>
<feBlend mode="normal" in="SourceGraphic" in2="BackgroundImageFix" result="shape"/>
<feGaussianBlur stdDeviation="1" result="effect1_foregroundBlur_20020_2478"/>
</filter>
<linearGradient id="paint0_linear_20020_2478" x1="11.2645" y1="14.4559" x2="15.2372" y2="16.299" gradientUnits="userSpaceOnUse">
<stop stop-color="#D37223"/>
<stop offset="1" stop-color="#B84A10"/>
</linearGradient>
<radialGradient id="paint1_radial_20020_2478" cx="0" cy="0" r="1" gradientUnits="userSpaceOnUse" gradientTransform="translate(12.7454 12.6641) rotate(133.334) scale(4.94079 3.81945)">
<stop stop-color="#D25A17"/>
<stop offset="1" stop-color="#D25A17" stop-opacity="0"/>
</radialGradient>
<radialGradient id="paint2_radial_20020_2478" cx="0" cy="0" r="1" gradientUnits="userSpaceOnUse" gradientTransform="translate(11.2454 6.60156) rotate(133.254) scale(3.51834 3.48985)">
<stop stop-color="#FFE243"/>
<stop offset="1" stop-color="#FFE243" stop-opacity="0"/>
</radialGradient>
<radialGradient id="paint3_radial_20020_2478" cx="0" cy="0" r="1" gradientUnits="userSpaceOnUse" gradientTransform="translate(24.8392 2.60156) rotate(117.458) scale(4.50846 4.2474)">
<stop stop-color="#FFE243"/>
<stop offset="1" stop-color="#FFE243" stop-opacity="0"/>
</radialGradient>
<linearGradient id="paint4_linear_20020_2478" x1="11.9153" y1="11.4376" x2="14.864" y2="11.5604" gradientUnits="userSpaceOnUse">
<stop stop-color="#FABB25"/>
<stop offset="1" stop-color="#FFD43E"/>
</linearGradient>
<radialGradient id="paint5_radial_20020_2478" cx="0" cy="0" r="1" gradientUnits="userSpaceOnUse" gradientTransform="translate(16.2825 9.94609) rotate(146.878) scale(1.56843 2.09849)">
<stop offset="0.214605" stop-color="#AD690C"/>
<stop offset="1" stop-color="#AD690C" stop-opacity="0"/>
</radialGradient>
<radialGradient id="paint6_radial_20020_2478" cx="0" cy="0" r="1" gradientUnits="userSpaceOnUse" gradientTransform="translate(15.9341 17.327) rotate(-129.818) scale(4.21217 2.77)">
<stop stop-color="#D76D21"/>
<stop offset="1" stop-color="#D76D21" stop-opacity="0"/>
</radialGradient>
<linearGradient id="paint7_linear_20020_2478" x1="15.3976" y1="12.9062" x2="15.0278" y2="12.9062" gradientUnits="userSpaceOnUse">
<stop stop-color="#C57503"/>
<stop offset="1" stop-color="#C57503" stop-opacity="0"/>
</linearGradient>
<linearGradient id="paint8_linear_20020_2478" x1="16.3021" y1="10.6378" x2="20.7388" y2="10.6378" gradientUnits="userSpaceOnUse">
<stop stop-color="#FABB25"/>
<stop offset="1" stop-color="#FFD43E"/>
</linearGradient>
<linearGradient id="paint9_linear_20020_2478" x1="21.2103" y1="11.4949" x2="18.0728" y2="11.4949" gradientUnits="userSpaceOnUse">
<stop stop-color="#FFE33F"/>
<stop offset="1" stop-color="#FFE33F" stop-opacity="0"/>
</linearGradient>
<radialGradient id="paint10_radial_20020_2478" cx="0" cy="0" r="1" gradientUnits="userSpaceOnUse" gradientTransform="translate(22.4022 15.4965) rotate(112.817) scale(5.35728 16.4557)">
<stop stop-color="#FFE54A"/>
<stop offset="1" stop-color="#ED7F37"/>
</radialGradient>
<linearGradient id="paint11_linear_20020_2478" x1="24.6415" y1="22.6882" x2="21.636" y2="20.1792" gradientUnits="userSpaceOnUse">
<stop offset="0.249477" stop-color="#FFAF42"/>
<stop offset="1" stop-color="#FFAF42" stop-opacity="0"/>
</linearGradient>
<radialGradient id="paint12_radial_20020_2478" cx="0" cy="0" r="1" gradientUnits="userSpaceOnUse" gradientTransform="translate(22.4022 15.4965) rotate(112.817) scale(5.35728 16.4557)">
<stop stop-color="#FFE54A"/>
<stop offset="1" stop-color="#ED7F37"/>
</radialGradient>
<linearGradient id="paint13_linear_20020_2478" x1="24.6415" y1="22.6882" x2="21.636" y2="20.1792" gradientUnits="userSpaceOnUse">
<stop offset="0.249477" stop-color="#FFAF42"/>
<stop offset="1" stop-color="#FFAF42" stop-opacity="0"/>
</linearGradient>
<linearGradient id="paint14_linear_20020_2478" x1="17.6408" y1="16.1805" x2="24.9866" y2="18.8921" gradientUnits="userSpaceOnUse">
<stop stop-color="#FFE446"/>
<stop offset="1" stop-color="#FFE446" stop-opacity="0"/>
</linearGradient>
<linearGradient id="paint15_linear_20020_2478" x1="26.1205" y1="16.7228" x2="23.5568" y2="16.7228" gradientUnits="userSpaceOnUse">
<stop stop-color="#FFDD40"/>
<stop offset="1" stop-color="#FFDD40" stop-opacity="0"/>
</linearGradient>
<radialGradient id="paint16_radial_20020_2478" cx="0" cy="0" r="1" gradientUnits="userSpaceOnUse" gradientTransform="translate(3.8859 11.6942) rotate(24.7045) scale(25.1258 26.7059)">
<stop offset="0.946057" stop-color="#FFDD40" stop-opacity="0"/>
<stop offset="1" stop-color="#FFDD40"/>
</radialGradient>
</defs>
</svg>

<svg width="32" height="32" fill="none" xmlns="http://www.w3.org/2000/svg"><g filter="url(#a)"><path d="M22.76 2.023a2.666 2.666 0 0 0-2.666 2.666v8.217H11.5V8.33a2.666 2.666 0 1 0-5.331 0v10.803c0 6.656 3.453 10.406 8.734 10.844h1.187c2.91-.291 5.907-1.329 8.157-4.547 1.89-3.047 1.648-6.09 1.457-7.876l-.02-.187a94.75 94.75 0 0 1-.258-2.826V4.689a2.666 2.666 0 0 0-2.666-2.666Z" fill="#FFAF42"/></g><g filter="url(#b)" fill="#D37223"><path d="M16.372 15.252a2.852 2.852 0 0 0 0 5.703h1.623c3.035 0 4.128 0 6.4-.256 0-3.5-2.836-5.443-6.336-5.447M16.372 15.252h1.68Z"/></g><g filter="url(#c)"><path fill="url(#d)" d="M9.835 10.959h6.099v6.995H9.835z"/></g><rect x="6.169" y="5.664" width="5.332" height="11.813" rx="2.666" fill="url(#e)"/><rect x="6.169" y="5.664" width="5.332" height="11.813" rx="2.666" fill="url(#f)"/><rect x="20.094" y="2.023" width="5.332" height="15.453" rx="2.666" fill="url(#g)"/><g filter="url(#h)"><rect x="10.54" y="8.805" width="5.395" height="8.203" rx="2.697" fill="url(#i)"/><rect x="10.54" y="8.805" width="5.395" height="8.203" rx="2.697" fill="url(#j)"/></g><rect x="10.54" y="8.805" width="5.395" height="8.203" rx="2.697" fill="url(#k)"/><rect x="10.54" y="8.805" width="5.395" height="8.203" rx="2.697" fill="url(#l)"/><g filter="url(#m)"><rect x="15.407" y="7.195" width="5.332" height="10.281" rx="2.666" fill="url(#n)"/></g><rect x="15.407" y="7.195" width="5.332" height="10.281" rx="2.666" fill="url(#o)"/><g filter="url(#p)"><path d="M23.527 4.602v13.562" stroke="#FFE446" stroke-width="1.5" stroke-linecap="round"/></g><path d="M17.739 14.117a2.852 2.852 0 0 0 0 5.703h1.624a1 1 0 0 1 .743.441l2.471 3.652a1 1 0 0 0 1.745-.16l.937-2.142c.332-.759.543-1.586.38-2.398a6.346 6.346 0 0 0-6.213-5.096" fill="url(#q)"/><path d="M17.739 14.117a2.852 2.852 0 0 0 0 5.703h1.624a1 1 0 0 1 .743.441l2.471 3.652a1 1 0 0 0 1.745-.16l.937-2.142c.332-.759.543-1.586.38-2.398a6.346 6.346 0 0 0-6.213-5.096" fill="url(#r)"/><path d="M17.739 14.117h1.68Z" fill="url(#s)"/><path d="M17.739 14.117h1.68Z" fill="url(#t)"/><g filter="url(#u)"><path d="M17.64 16.18h2.285a3 3 0 0 1 2.363 1.152l2.107 2.694" stroke="url(#v)" stroke-width="2" stroke-linecap="round"/></g><path d="M22.76 2.023a2.666 2.666 0 0 0-2.666 2.666v3.434c.402.467.645 1.074.645 1.738v4.95a2.666 2.666 0 0 1-5.184.879 2.697 2.697 0 0 1-5.016-1.38v-2.808c0-.828.374-1.57.962-2.064V8.33a2.666 2.666 0 1 0-5.332 0v10.803c0 6.656 3.453 10.406 8.734 10.844h1.187c2.91-.291 5.907-1.329 8.157-4.547 1.89-3.047 1.648-6.09 1.457-7.876l-.02-.187a94.75 94.75 0 0 1-.258-2.826V4.689a2.666 2.666 0 0 0-2.666-2.666Z" fill="url(#w)"/><path d="M22.76 2.023a2.666 2.666 0 0 0-2.666 2.666v3.434c.402.467.645 1.074.645 1.738v4.95a2.666 2.666 0 0 1-5.184.879 2.697 2.697 0 0 1-5.016-1.38v-2.808c0-.828.374-1.57.962-2.064V8.33a2.666 2.666 0 1 0-5.332 0v10.803c0 6.656 3.453 10.406 8.734 10.844h1.187c2.91-.291 5.907-1.329 8.157-4.547 1.89-3.047 1.648-6.09 1.457-7.876l-.02-.187a94.75 94.75 0 0 1-.258-2.826V4.689a2.666 2.666 0 0 0-2.666-2.666Z" fill="url(#x)"/><defs><linearGradient id="d" x1="11.264" y1="14.456" x2="15.237" y2="16.299" gradientUnits="userSpaceOnUse"><stop stop-color="#D37223"/><stop offset="1" stop-color="#B84A10"/></linearGradient><linearGradient id="i" x1="11.915" y1="11.438" x2="14.864" y2="11.56" gradientUnits="userSpaceOnUse"><stop stop-color="#FABB25"/><stop offset="1" stop-color="#FFD43E"/></linearGradient><linearGradient id="l" x1="15.398" y1="12.906" x2="15.028" y2="12.906" gradientUnits="userSpaceOnUse"><stop stop-color="#C57503"/><stop offset="1" stop-color="#C57503" stop-opacity="0"/></linearGradient><linearGradient id="n" x1="16.302" y1="10.638" x2="20.739" y2="10.638" gradientUnits="userSpaceOnUse"><stop stop-color="#FABB25"/><stop offset="1" stop-color="#FFD43E"/></linearGradient><linearGradient id="o" x1="21.21" y1="11.495" x2="18.073" y2="11.495" gradientUnits="userSpaceOnUse"><stop stop-color="#FFE33F"/><stop offset="1" stop-color="#FFE33F" stop-opacity="0"/></linearGradient><linearGradient id="r" x1="24.642" y1="22.688" x2="21.636" y2="20.179" gradientUnits="userSpaceOnUse"><stop offset=".249" stop-color="#FFAF42"/><stop offset="1" stop-color="#FFAF42" stop-opacity="0"/></linearGradient><linearGradient id="t" x1="24.642" y1="22.688" x2="21.636" y2="20.179" gradientUnits="userSpaceOnUse"><stop offset=".249" stop-color="#FFAF42"/><stop offset="1" stop-color="#FFAF42" stop-opacity="0"/></linearGradient><linearGradient id="v" x1="17.641" y1="16.18" x2="24.987" y2="18.892" gradientUnits="userSpaceOnUse"><stop stop-color="#FFE446"/><stop offset="1" stop-color="#FFE446" stop-opacity="0"/></linearGradient><linearGradient id="w" x1="26.12" y1="16.723" x2="23.557" y2="16.723" gradientUnits="userSpaceOnUse"><stop stop-color="#FFDD40"/><stop offset="1" stop-color="#FFDD40" stop-opacity="0"/></linearGradient><radialGradient id="e" cx="0" cy="0" r="1" gradientUnits="userSpaceOnUse" gradientTransform="matrix(-3.39062 3.59376 -2.77814 -2.6211 12.745 12.664)"><stop stop-color="#D25A17"/><stop offset="1" stop-color="#D25A17" stop-opacity="0"/></radialGradient><radialGradient id="f" cx="0" cy="0" r="1" gradientUnits="userSpaceOnUse" gradientTransform="rotate(133.254 4.196 5.73) scale(3.51834 3.48985)"><stop stop-color="#FFE243"/><stop offset="1" stop-color="#FFE243" stop-opacity="0"/></radialGradient><radialGradient id="g" cx="0" cy="0" r="1" gradientUnits="userSpaceOnUse" gradientTransform="matrix(-2.07884 4.00058 -3.76893 -1.95847 24.84 2.602)"><stop stop-color="#FFE243"/><stop offset="1" stop-color="#FFE243" stop-opacity="0"/></radialGradient><radialGradient id="j" cx="0" cy="0" r="1" gradientUnits="userSpaceOnUse" gradientTransform="matrix(-1.31357 .85703 -1.14666 -1.7575 16.282 9.946)"><stop offset=".215" stop-color="#AD690C"/><stop offset="1" stop-color="#AD690C" stop-opacity="0"/></radialGradient><radialGradient id="k" cx="0" cy="0" r="1" gradientUnits="userSpaceOnUse" gradientTransform="rotate(-129.818 12.024 4.933) scale(4.21217 2.77)"><stop stop-color="#D76D21"/><stop offset="1" stop-color="#D76D21" stop-opacity="0"/></radialGradient><radialGradient id="q" cx="0" cy="0" r="1" gradientUnits="userSpaceOnUse" gradientTransform="rotate(112.817 6.055 15.188) scale(5.35728 16.4557)"><stop stop-color="#FFE54A"/><stop offset="1" stop-color="#ED7F37"/></radialGradient><radialGradient id="s" cx="0" cy="0" r="1" gradientUnits="userSpaceOnUse" gradientTransform="rotate(112.817 6.055 15.188) scale(5.35728 16.4557)"><stop stop-color="#FFE54A"/><stop offset="1" stop-color="#ED7F37"/></radialGradient><radialGradient id="x" cx="0" cy="0" r="1" gradientUnits="userSpaceOnUse" gradientTransform="matrix(22.82617 10.50104 -11.16142 24.26165 3.886 11.694)"><stop offset=".946" stop-color="#FFDD40" stop-opacity="0"/><stop offset="1" stop-color="#FFDD40"/></radialGradient><filter id="a" x="6.169" y="1.273" width="20.413" height="28.703" filterUnits="userSpaceOnUse" color-interpolation-filters="sRGB"><feFlood flood-opacity="0" result="BackgroundImageFix"/><feBlend in="SourceGraphic" in2="BackgroundImageFix" result="shape"/><feColorMatrix in="SourceAlpha" values="0 0 0 0 0 0 0 0 0 0 0 0 0 0 0 0 0 0 127 0" result="hardAlpha"/><feOffset dx=".75" dy="-.75"/><feGaussianBlur stdDeviation="1"/><feComposite in2="hardAlpha" operator="arithmetic" k2="-1" k3="1"/><feColorMatrix values="0 0 0 0 0.894118 0 0 0 0 0.490196 0 0 0 0 0.313726 0 0 0 1 0"/><feBlend in2="shape" result="effect1_innerShadow_20020_2478"/></filter><filter id="b" x="11.52" y="13.252" width="14.875" height="9.703" filterUnits="userSpaceOnUse" color-interpolation-filters="sRGB"><feFlood flood-opacity="0" result="BackgroundImageFix"/><feBlend in="SourceGraphic" in2="BackgroundImageFix" result="shape"/><feGaussianBlur stdDeviation="1" result="effect1_foregroundBlur_20020_2478"/></filter><filter id="c" x="7.835" y="8.959" width="10.099" height="10.995" filterUnits="userSpaceOnUse" color-interpolation-filters="sRGB"><feFlood flood-opacity="0" result="BackgroundImageFix"/><feBlend in="SourceGraphic" in2="BackgroundImageFix" result="shape"/><feGaussianBlur stdDeviation="1" result="effect1_foregroundBlur_20020_2478"/></filter><filter id="h" x="10.54" y="8.055" width="6.145" height="8.953" filterUnits="userSpaceOnUse" color-interpolation-filters="sRGB"><feFlood flood-opacity="0" result="BackgroundImageFix"/><feBlend in="SourceGraphic" in2="BackgroundImageFix" result="shape"/><feColorMatrix in="SourceAlpha" values="0 0 0 0 0 0 0 0 0 0 0 0 0 0 0 0 0 0 127 0" result="hardAlpha"/><feOffset dx=".75" dy="-.75"/><feGaussianBlur stdDeviation="1"/><feComposite in2="hardAlpha" operator="arithmetic" k2="-1" k3="1"/><feColorMatrix values="0 0 0 0 0.921569 0 0 0 0 0.533333 0 0 0 0 0.223529 0 0 0 1 0"/><feBlend in2="shape" result="effect1_innerShadow_20020_2478"/></filter><filter id="m" x="15.407" y="6.445" width="6.082" height="11.031" filterUnits="userSpaceOnUse" color-interpolation-filters="sRGB"><feFlood flood-opacity="0" result="BackgroundImageFix"/><feBlend in="SourceGraphic" in2="BackgroundImageFix" result="shape"/><feColorMatrix in="SourceAlpha" values="0 0 0 0 0 0 0 0 0 0 0 0 0 0 0 0 0 0 127 0" result="hardAlpha"/><feOffset dx=".75" dy="-.75"/><feGaussianBlur stdDeviation="1"/><feComposite in2="hardAlpha" operator="arithmetic" k2="-1" k3="1"/><feColorMatrix values="0 0 0 0 0.921569 0 0 0 0 0.533333 0 0 0 0 0.223529 0 0 0 1 0"/><feBlend in2="shape" result="effect1_innerShadow_20020_2478"/></filter><filter id="p" x="20.777" y="1.852" width="5.5" height="19.063" filterUnits="userSpaceOnUse" color-interpolation-filters="sRGB"><feFlood flood-opacity="0" result="BackgroundImageFix"/><feBlend in="SourceGraphic" in2="BackgroundImageFix" result="shape"/><feGaussianBlur stdDeviation="1" result="effect1_foregroundBlur_20020_2478"/></filter><filter id="u" x="14.641" y="13.181" width="12.754" height="9.846" filterUnits="userSpaceOnUse" color-interpolation-filters="sRGB"><feFlood flood-opacity="0" result="BackgroundImageFix"/><feBlend in="SourceGraphic" in2="BackgroundImageFix" result="shape"/><feGaussianBlur stdDeviation="1" result="effect1_foregroundBlur_20020_2478"/></filter></defs></svg>
